static/logos/zeroheight-glyph-color.svg

<svg width="42" height="51" viewBox="0 0 42 51" fill="none" xmlns="http://www.w3.org/2000/svg">
<g clip-path="url(#clip0_1_288)">
<mask id="mask0_1_288" style="mask-type:alpha" maskUnits="userSpaceOnUse" x="0" y="0" width="42" height="51">
<path d="M3.71222 0L7.42672 7.9538H0L3.71222 0ZM0 9.21037H7.42672V44.7977H0V9.21037ZM0 46.0542H7.42672V50.3808H0V46.0542ZM13.2137 7.93307L18.3572 2.76863L42 26.5471L18.2382 51L13.1038 46.098L31.7679 26.5817L13.2137 7.93537V7.93307Z" fill="white"/>
</mask>
<g mask="url(#mask0_1_288)">
<path d="M3.71222 0L7.42672 7.9538H0L3.71222 0ZM0 9.21037H7.42672V44.7977H0V9.21037ZM0 46.0542H7.42672V50.3808H0V46.0542ZM13.2137 7.93307L18.3572 2.76863L42 26.5471L18.2382 51L13.1038 46.098L31.7679 26.5817L13.2137 7.93537V7.93307Z" fill="white"/>
<path fill-rule="evenodd" clip-rule="evenodd" d="M0 0H42.0709V51.0023H0V0Z" fill="url(#paint0_linear_1_288)"/>
</g>
</g>
<defs>
<linearGradient id="paint0_linear_1_288" x1="6.57907" y1="51.0023" x2="43.5072" y2="6.67787" gradientUnits="userSpaceOnUse">
<stop stop-color="#EC407A"/>
<stop offset="1" stop-color="#FFA000"/>
</linearGradient>
<clipPath id="clip0_1_288">
<rect width="42" height="51" fill="white"/>
</clipPath>
</defs>
</svg>

<svg xmlns="http://www.w3.org/2000/svg" width="52.706" height="64" fill="none" viewBox="0 0 42 51"><g clip-path="url(#a)"><mask id="b" width="42" height="51" x="0" y="0" maskUnits="userSpaceOnUse" style="mask-type:alpha"><path fill="#fff" d="m3.712 0 3.715 7.954H0L3.712 0ZM0 9.21h7.427v35.588H0V9.21Zm0 36.844h7.427v4.327H0v-4.327Zm13.214-38.12 5.143-5.165L42 26.547 18.238 51l-5.134-4.902 18.664-19.516L13.214 7.935v-.002Z"/></mask><g mask="url(#b)"><path fill="#fff" d="m3.712 0 3.715 7.954H0L3.712 0ZM0 9.21h7.427v35.588H0V9.21Zm0 36.844h7.427v4.327H0v-4.327Zm13.214-38.12 5.143-5.165L42 26.547 18.238 51l-5.134-4.902 18.664-19.516L13.214 7.935v-.002Z"/><path fill="url(#c)" fill-rule="evenodd" d="M0 0h42.07v51.002H0V0Z" clip-rule="evenodd"/></g></g><defs><linearGradient id="c" x1="6.579" x2="43.507" y1="51.002" y2="6.678" gradientUnits="userSpaceOnUse"><stop stop-color="#EC407A"/><stop offset="1" stop-color="#FFA000"/></linearGradient><clipPath id="a"><path fill="#fff" d="M0 0h42v51H0z"/></clipPath></defs></svg>
